eraser.svg

<svg fill="currentColor" viewBox="0 0 24 24"><path d="m16.24 3.56 4.95 4.94c.78.79.78 2.05 0 2.84L12 20.53a4.01 4.01 0 0 1-5.66 0L2.81 17c-.78-.79-.78-2.05 0-2.84l10.6-10.6c.79-.78 2.05-.78 2.83 0M4.22 15.58l3.54 3.53c.78.79 2.04.79 2.83 0l3.53-3.53-4.95-4.95z"/></svg>

<svg  viewBox="0 0 24 24" fill="currentColor"><path  d="M16.24,3.56L21.19,8.5C21.97,9.29 21.97,10.55 21.19,11.34L12,20.53C10.44,22.09 7.91,22.09 6.34,20.53L2.81,17C2.03,16.21 2.03,14.95 2.81,14.16L13.41,3.56C14.2,2.78 15.46,2.78 16.24,3.56M4.22,15.58L7.76,19.11C8.54,19.9 9.8,19.9 10.59,19.11L14.12,15.58L9.17,10.63L4.22,15.58Z"/></svg>
